X:1
T:Title
%%score { ( 1 3 ) | ( 2 4 ) }
L:1/8
M:4/4
K:Ab
V:1 treble nm="Grand Piano"
V:3 treble 
V:2 bass 
V:4 bass 
V:1
 z4 z2[Q:1/4=94] [CA]>[DB] | [Ec]>[CA] A>F E2 A>B | [Ec]>[CA] A>F E2 A>B | %3
 [Ec]>[Ec] [Ec]>[DB] [CA]>[CE] [=DB]>[Dc] | [DB]6 [Ac]>[Bd] | [ce]>[ce] [Ac]>[Ac] [Gd]2 [GB]>[GB] | %6
[M:3/4] [Gd]>[Gd] [GB]>[GB] c2 |[M:1/4] A>A |[M:4/4] [FA]>[FA] [EG]>F E<A A>G |[M:3/4] [A,CA]6 | %10
[M:1/4] G>A |[M:4/4] B6 z2 | [Ec]6[K:bass][K:treble] z2 | e6 z2 | B6 z2 | %15
 [ce]>[ce] [Ac]>[Ac] [Gd]2 [GB]>[GB] | [Gd]>[Gd] [GB]>[GB] c2 A>A | [FA]>[FA] [EG]>F E<A A>G | %18
[M:3/4] [CA]6 |] %19
V:2
 z4 z2 [A,,A,]>[A,,A,] | [A,,A,]>[A,,A,] [D,F,D]>[F,A,D] [A,C]2 [A,C]>[A,D] | %2
 [A,,A,]>[A,,A,] [D,F,D]>[E,A,D] [A,C]2 [A,C]>[A,D] | %3
 [A,,A,]>[A,,A,] [A,,A,]>[A,,A,] [A,,A,]>[A,,A,] [B,,F,]>[B,,F,] | [E,G,]6 [C,A,]>[B,,G,] | %5
 [A,,A,]>[A,,A,] [A,,A,]>[A,,A,] [E,B,]2 [E,E]>[E,E] | %6
[M:3/4] [E,E]>[E,E] [E,E]>[E,E][K:treble] [A,EA]2 |[M:1/4] [A,C]>[A,C_G] | %8
[M:4/4][K:bass] [D,D]>[D,D] [D,D]>[D,A,D] [E,A,C]<[E,A,C] [E,B,D]>[E,B,D] |[M:3/4] A,,6 | %10
[M:1/4] B,>C |[M:4/4] D6 z2 | [A,,A,]>A,, C,>E, A,2[K:treble] A>B | c6[K:bass] z2 | %14
 [E,G,E]>[E,G,] [B,,F,]>[B,,A,] E,D, [C,A,]>[B,,G,] | %15
 [A,,A,]>[A,,A,] [A,,A,]>[A,,A,] [E,B,]2 [E,E]>[E,E] | %16
 [E,E]>[E,E] [E,E]>[E,E][K:treble] [A,EA]2 [A,C]>[A,C_G] | %17
 [D,D]>[D,D] [D,D]>[D,A,D] [E,A,C]<[E,A,C] [E,B,D]>[E,B,D] |[M:3/4] [A,,A,]6 |] %19
V:3
 x8 | x8 | x8 | x8 | x8 | x8 |[M:3/4] x6 |[M:1/4] x2 |[M:4/4] x8 |[M:3/4] x6 |[M:1/4] x2 | %11
[M:4/4] z2 G,>G, G,>G [EA]>[EB] | z z/[K:bass] A,/ A,>A, z2[K:treble] c>d | %13
 z2 E>E E>[Ec] [EB]>[EA] | z z/ E/ =D>F [G,E]2 [Ac]>[Bd] | x8 | x8 | x8 |[M:3/4] x6 |] %19
V:4
 x8 | x8 | x8 | x8 | x8 | x8 |[M:3/4] x4[K:treble] x2 |[M:1/4] x2 |[M:4/4][K:bass] x8 |[M:3/4] x6 | %10
[M:1/4] x2 |[M:4/4] z2 E,>E, E,>[D,B,D] [C,A,]>[B,,G,] | x6[K:treble] x2 | %13
 z2 A,>A,[K:bass] A,>[A,,A,] [B,,G,]>[C,A,] | x8 | x8 | x4[K:treble] x4 | x8 |[M:3/4] x6 |] %19

